X:1
T: Mr. Alexander Munro (Braemar)
C:Alexander Walker
R:Strathspey
Q: 128
K:G
M:4/4
L:1/16
|:g2|dB3 B3A G3A G3D|E3D G3B, A,4 A,3g|dB3 B3A G3A G3D|((3EFG) ((3DEC) B,G,3 G,3g|
dB3 B3A G3A G3F|E3D G3B, A,4 A,3f|g3b g3e f3a f3d|B3e ^d3f ee3 e2f2|
gfe^d b3d e4 B3f|g3e b3A Bd3 d3f|gfe^d b3d e4 B3G|F3d A3B F3A A3f|
gfe^d b3d e4 B3f|g3e b3A Bd3 d3f|gb3 fa3 eg3 B3G|EA3 D3F GG,3 G,2:|
